X:4
T: Ritter und Magd
N: Q0055C
O: Mitteleuropa, Deutschland (BRD) , Hessen, Nassau
R: Ballade, Betrug, Schwangerschaft, Tod, Selbstmord, Herr und Magd
M: 6/8
L: 1/8
K: F
C | FFAccd | ccAF2
c | f2fedc | d3c2
c | ddefed | c2BAA
d | c2GB2B | B2cA2

@@@ Tune index: 880
